small/extra/apps/standard/emerald-theme-manager-icon.svg

<?xml version="1.0" encoding="UTF-8" standalone="no"?>
<!-- Created with Inkscape (http://www.inkscape.org/) -->
<svg id="svg2" xmlns:rdf="http://www.w3.org/1999/02/22-rdf-syntax-ns#" xmlns="http://www.w3.org/2000/svg" height="100%" width="100%" version="1.1" xmlns:cc="http://creativecommons.org/ns#" viewBox="0 0 512 512" xmlns:dc="http://purl.org/dc/elements/1.1/">
 <metadata id="metadata73">
  <rdf:RDF>
   <cc:Work rdf:about="">
    <dc:format>image/svg+xml</dc:format>
    <dc:type rdf:resource="http://purl.org/dc/dcmitype/StillImage"/>
   </cc:Work>
  </rdf:RDF>
 </metadata>
 <path id="path19" d="m26 0c-14.397 0-26 11.603-26 26v460c0 14.397 11.603 26 26 26h460c14.397 0 26-11.603 26-26v-460c0-14.397-11.6-26-26-26h-460" fill="#4ea92b"/>
 <text id="text21" style="word-spacing:0;letter-spacing:0" font-size="129.23px" line-height="125%" y="82.370003" x="1526.01" font-family="Gentium Book Basic">
  <tspan id="tspan23" y="82.370003" x="1526.01"/>
 </text>
 <text id="text25" style="text-anchor:middle" transform="scale(4.0128 .2492)" font-size="46.954px" y="-18.622999" x="577.35999" font-family="Arial"/>
 <text id="text27" style="word-spacing:0;letter-spacing:0" font-size="129.23px" line-height="125%" y="2.368" x="2107.28" font-family="Gentium Book Basic">
  <tspan id="tspan29" y="2.368" x="2107.28"/>
 </text>
 <text id="text31" style="text-anchor:middle" transform="scale(4.0128 .2492)" font-size="46.954px" y="-339.66" x="722.21002" font-family="Arial"/>
 <text id="text33" style="word-spacing:0;letter-spacing:0" font-size="129.23px" line-height="125%" y="-178.89" x="1035.7" font-family="Gentium Book Basic">
  <tspan id="tspan35" y="-178.89" x="1035.7"/>
 </text>
 <text id="text37" style="text-anchor:middle" transform="scale(4.0128 .2492)" font-size="46.954px" y="-1067.01" x="455.17001" font-family="Arial"/>
 <text id="text39" style="word-spacing:0;letter-spacing:0" font-size="129.23px" line-height="125%" y="-395.35999" x="2133.75" font-family="Gentium Book Basic">
  <tspan id="tspan41" y="-395.35999" x="2133.75"/>
 </text>
 <text id="text43" style="text-anchor:middle" transform="scale(4.0128 .2492)" font-size="46.954px" y="-1935.67" x="728.81" font-family="Arial"/>
 <text id="text45" style="word-spacing:0;letter-spacing:0" font-size="129.23px" line-height="125%" y="-475.35999" x="2715.02" font-family="Gentium Book Basic">
  <tspan id="tspan47" y="-475.35999" x="2715.02"/>
 </text>
 <text id="text49" style="text-anchor:middle" transform="scale(4.0128 .2492)" font-size="46.954px" y="-2256.7" x="873.65997" font-family="Arial"/>
 <text id="text51" style="word-spacing:0;letter-spacing:0" font-size="129.23px" line-height="125%" y="-947.76001" x="2325.8999" font-family="Gentium Book Basic">
  <tspan id="tspan53" y="-947.76001" x="2325.8999"/>
 </text>
 <text id="text55" style="text-anchor:middle" transform="scale(4.0128 .2492)" font-size="46.954px" y="-4152.3398" x="776.69" font-family="Arial"/>
 <text id="text57" style="word-spacing:0;letter-spacing:0" font-size="129.23px" line-height="125%" y="-1027.77" x="2907.1599" font-family="Gentium Book Basic">
  <tspan id="tspan59" y="-1027.77" x="2907.1599"/>
 </text>
 <text id="text61" style="text-anchor:middle" transform="scale(4.0128 .2492)" font-size="46.954px" y="-4473.3799" x="921.53998" font-family="Arial"/>
 <text id="text63" style="word-spacing:0;letter-spacing:0" font-size="208.33px" line-height="125%" y="386.95001" x="1074.36" font-family="Gentium Book Basic">
  <tspan id="tspan65" y="386.95001" x="1074.36"/>
 </text>
 <path id="path67" opacity=".25" d="m102.38 68.09-61.37 99.44 15.25 15.25h-15.25l203.13 261.13 68.09 68.09h173.78c14.397 0 26-11.603 26-26v-315.53l-102.37-102.37-5.91 9.531-9.53-9.531h-122.75l24.906 40.34-40.34-40.34-5.906 9.531-9.531-9.531h-122.75l24.906 40.34-40.34-40.34"/>
 <path id="path69" d="m102.37 68.1-61.37 99.44h122.95l-61.59-99.44m15.453 0 61.37 99.44 61.37-99.44h-122.73m138.18 0-61.37 99.44h122.73l-61.37-99.44m15.453 0 61.37 99.44 61.37-99.44h-122.73m138.18 0-61.59 99.44h122.95l-61.36-99.44m-368.63 114.66 203.12 261.13-72.56-261.13h-130.56m145.79 0 69.21 261.13 69.21-261.13h-138.4m153.63 0-72.56 261.13 203.12-261.13h-130.56" fill="#fff"/>
</svg>

<?xml version="1.0" encoding="UTF-8" standalone="no"?>
<!-- Created with Inkscape (http://www.inkscape.org/) -->

<svg
   xmlns:dc="http://purl.org/dc/elements/1.1/"
   xmlns:cc="http://creativecommons.org/ns#"
   xmlns:rdf="http://www.w3.org/1999/02/22-rdf-syntax-ns#"
   xmlns:svg="http://www.w3.org/2000/svg"
   xmlns="http://www.w3.org/2000/svg"
   xmlns:inkscape="http://www.inkscape.org/namespaces/inkscape"
   version="1.1"
   width="100%"
   height="100%"
   viewBox="0 0 512 512"
   id="svg2">
  <metadata
     id="metadata73">
    <rdf:RDF>
      <cc:Work
         rdf:about="">
        <dc:format>image/svg+xml</dc:format>
        <dc:type
           rdf:resource="http://purl.org/dc/dcmitype/StillImage" />
      </cc:Work>
    </rdf:RDF>
  </metadata>
  <defs
     id="defs4" />
  <path
     d="M 26,0 C 11.603,0 0,11.603 0,26 v 460 c 0,14.397 11.603,26 26,26 h 460 c 14.397,0 26,-11.603 26,-26 V 26 C 512,11.603 500.397,0 486,0 H 26"
     inkscape:connector-curvature="0"
     id="path19"
     style="fill:#4ea92b" />
  <text
     x="1526.01"
     y="82.370003"
     id="text21"
     style="font-size:129.22999573px;line-height:125%;letter-spacing:0;word-spacing:0;font-family:Gentium Book Basic">
    <tspan
       x="1526.01"
       y="82.370003"
       id="tspan23" />
  </text>
  <text
     x="577.35999"
     y="-18.622999"
     transform="scale(4.0128,0.2492)"
     id="text25"
     style="font-size:46.95399857px;text-anchor:middle;font-family:Arial" />
  <text
     x="2107.28"
     y="2.368"
     id="text27"
     style="font-size:129.22999573px;line-height:125%;letter-spacing:0;word-spacing:0;font-family:Gentium Book Basic">
    <tspan
       x="2107.28"
       y="2.368"
       id="tspan29" />
  </text>
  <text
     x="722.21002"
     y="-339.66"
     transform="scale(4.0128,0.2492)"
     id="text31"
     style="font-size:46.95399857px;text-anchor:middle;font-family:Arial" />
  <text
     x="1035.7"
     y="-178.89"
     id="text33"
     style="font-size:129.22999573px;line-height:125%;letter-spacing:0;word-spacing:0;font-family:Gentium Book Basic">
    <tspan
       x="1035.7"
       y="-178.89"
       id="tspan35" />
  </text>
  <text
     x="455.17001"
     y="-1067.01"
     transform="scale(4.0128,0.2492)"
     id="text37"
     style="font-size:46.95399857px;text-anchor:middle;font-family:Arial" />
  <text
     x="2133.75"
     y="-395.35999"
     id="text39"
     style="font-size:129.22999573px;line-height:125%;letter-spacing:0;word-spacing:0;font-family:Gentium Book Basic">
    <tspan
       x="2133.75"
       y="-395.35999"
       id="tspan41" />
  </text>
  <text
     x="728.81"
     y="-1935.67"
     transform="scale(4.0128,0.2492)"
     id="text43"
     style="font-size:46.95399857px;text-anchor:middle;font-family:Arial" />
  <text
     x="2715.02"
     y="-475.35999"
     id="text45"
     style="font-size:129.22999573px;line-height:125%;letter-spacing:0;word-spacing:0;font-family:Gentium Book Basic">
    <tspan
       x="2715.02"
       y="-475.35999"
       id="tspan47" />
  </text>
  <text
     x="873.65997"
     y="-2256.7"
     transform="scale(4.0128,0.2492)"
     id="text49"
     style="font-size:46.95399857px;text-anchor:middle;font-family:Arial" />
  <text
     x="2325.8999"
     y="-947.76001"
     id="text51"
     style="font-size:129.22999573px;line-height:125%;letter-spacing:0;word-spacing:0;font-family:Gentium Book Basic">
    <tspan
       x="2325.8999"
       y="-947.76001"
       id="tspan53" />
  </text>
  <text
     x="776.69"
     y="-4152.3398"
     transform="scale(4.0128,0.2492)"
     id="text55"
     style="font-size:46.95399857px;text-anchor:middle;font-family:Arial" />
  <text
     x="2907.1599"
     y="-1027.77"
     id="text57"
     style="font-size:129.22999573px;line-height:125%;letter-spacing:0;word-spacing:0;font-family:Gentium Book Basic">
    <tspan
       x="2907.1599"
       y="-1027.77"
       id="tspan59" />
  </text>
  <text
     x="921.53998"
     y="-4473.3799"
     transform="scale(4.0128,0.2492)"
     id="text61"
     style="font-size:46.95399857px;text-anchor:middle;font-family:Arial" />
  <text
     x="1074.36"
     y="386.95001"
     id="text63"
     style="font-size:208.33000183px;line-height:125%;letter-spacing:0;word-spacing:0;font-family:Gentium Book Basic">
    <tspan
       x="1074.36"
       y="386.95001"
       id="tspan65" />
  </text>
  <path
     d="m 102.38,68.09 -61.37,99.44 15.25,15.25 H 41.01 L 244.14,443.91 312.23,512 h 173.78 c 14.397,0 26,-11.603 26,-26 V 170.47 L 409.64,68.1 403.734,77.631 394.203,68.1 h -122.72 -0.031 l 24.906,40.34 -40.34,-40.34 -5.906,9.531 -9.531,-9.531 h -122.72 -0.031 l 24.906,40.34 -40.34,-40.34"
     inkscape:connector-curvature="0"
     id="path67"
     style="opacity:0.25" />
  <path
     d="M 102.37,68.1 41,167.54 H 163.95 L 102.36,68.1 m 15.453,0 61.37,99.44 61.37,-99.44 h -122.73 m 138.18,0 -61.37,99.44 h 122.73 L 255.993,68.1 m 15.453,0 61.37,99.44 61.37,-99.44 h -122.73 m 138.18,0 -61.59,99.44 h 122.95 L 409.626,68.1 M 40.996,182.76 244.116,443.89 171.556,182.76 H 40.996 m 145.79,0 69.21,261.13 69.21,-261.13 h -138.4 m 153.63,0 -72.56,261.13 203.12,-261.13 h -130.56"
     inkscape:connector-curvature="0"
     id="path69"
     style="fill:#ffffff" />
</svg>
